public/livestock/guard.svg

<svg fill="none" height="179" viewBox="0 0 178 179" width="178" xmlns="http://www.w3.org/2000/svg"><circle cx="89" cy="89" fill="#00bcb4" r="89"/><path d="m88.3975 116.918c-3.3829-.018-6.7191-.791-9.7649-2.263-3.0458-1.473-5.7242-3.607-7.8394-6.247h-.1018v10.148h17.7061z" fill="#3d113c"/><path d="m35 132.639v27.63c2.7352 2.058 5.5866 3.956 8.54 5.685v-33.315z" fill="#fdb98d"/><path d="m76.5351 108.408c-4.6521-2.413-8.3612-6.316-10.5351-11.0845.7597 5.4095 3.4399 10.3655 7.5512 13.9635 4.1113 3.597 9.3794 5.596 14.8422 5.631v-5.563c-4.1325-.012-8.2009-1.023-11.8583-2.947z" fill="#fffac2"/><path d="m65.9844 90.071c.9563 2.1521 2.2443 4.1408 3.817 5.8936 2.3556 2.5868 5.227 4.6514 8.4291 6.0614 3.2021 1.409 6.664 2.132 10.1626 2.122v-14.077z" fill="#fffac2"/><path d="m61.0313 47.4828v48.4615h4.4227c.1679.458.346.911.5445 1.3537 2.1739 4.769 5.8831 8.671 10.5351 11.085 3.6594 1.923 7.7296 2.932 11.8634 2.941v-7.176c-3.4986.01-6.9604-.713-10.1625-2.122-3.2021-1.41-6.0735-3.4746-8.4291-6.0614-1.5727-1.7528-2.8607-3.7415-3.8171-5.8935h22.3935v-70.0711c-7.266.035-14.2224 2.9459-19.3479 8.0962-5.1254 5.1502-8.0027 12.1206-8.0026 19.3866z" fill="#016099"/><path d="m70.6921 118.562h-35.6921v11.135h35.6921z" fill="#016099"/><path d="m70.6921 129.692h-35.6921v2.947h35.6921z" fill="#fbf9c6"/><path d="m54.6699 132.639v38.837c5.1741 2.13 10.5386 3.765 16.0215 4.881v-43.718z" fill="#fdb98d"/><path d="m88.398 127.387v-8.825h-14.7593v58.35c4.8772.819 9.8138 1.232 14.7593 1.237v-2.952c-.7158-.031-1.392-.337-1.8876-.854-.4957-.517-.7723-1.206-.7723-1.923 0-.716.2766-1.405.7723-1.922.4956-.517 1.1718-.823 1.8876-.854v-4.926c-.7158-.031-1.392-.337-1.8876-.854-.4957-.517-.7723-1.206-.7723-1.923 0-.716.2766-1.405.7723-1.922.4956-.517 1.1718-.823 1.8876-.854v-15.726c-.7158-.031-1.392-.337-1.8876-.854-.4957-.517-.7723-1.206-.7723-1.922 0-.717.2766-1.406.7723-1.923.4956-.517 1.1718-.823 1.8876-.854v-4.901c-.7158-.03-1.392-.336-1.8876-.854-.4957-.517-.7723-1.206-.7723-1.922 0-.717.2766-1.405.7723-1.923.4956-.517 1.1718-.823 1.8876-.853z" fill="#fdb98d"/><g fill="#fbf9c6"><path d="m70.6914 118.562v57.8c.967.199 1.9442.382 2.9213.545v-58.345z"/><path d="m88.3977 127.386c-.6088.029-1.1914.256-1.658.648-.4667.392-.7915.927-.9246 1.522-.1331.594-.0669 1.216.1882 1.77.2552.553.6852 1.007 1.2238 1.292h1.1706z"/><path d="m87.2285 132.639c.3617.192.7615.302 1.1706.321v-.321z"/><path d="m85.752 140.665c-.0009.714.2737 1.402.7665 1.919.4929.518 1.1661.826 1.8799.86v-5.558c-.7138.034-1.387.342-1.8799.859-.4928.518-.7674 1.205-.7665 1.92z"/><path d="m85.752 161.949c-.0009.715.2737 1.402.7665 1.92.4929.517 1.1661.825 1.8799.859v-5.558c-.7138.034-1.387.342-1.8799.859-.4928.518-.7674 1.205-.7665 1.92z"/><path d="m85.752 172.423c-.0008.714.2737 1.402.7666 1.919.4928.518 1.1661.826 1.8799.86v-5.573c-.7165.034-1.392.344-1.8852.864-.4933.521-.766 1.212-.7613 1.93z"/></g><path d="m88.5359 116.923h-.1375v1.639h17.9856v-10.154h-.101c-2.13 2.66-4.831 4.806-7.9033 6.28-3.0721 1.474-6.4365 2.238-9.8438 2.235z" fill="#270e11"/><path d="m106.384 132.639v-14.077h-17.9856v8.825h.1375c.7383 0 1.4464.293 1.9685.815s.8154 1.23.8154 1.969c0 .738-.2933 1.446-.8154 1.968s-1.2302.816-1.9685.816h-.1375v4.916h.1375c.7383 0 1.4464.293 1.9685.815s.8154 1.231.8154 1.969-.2933 1.446-.8154 1.968c-.5221.523-1.2302.816-1.9685.816h-.1375v15.731h.1375c.7383 0 1.4464.294 1.9685.816s.8154 1.23.8154 1.968-.2933 1.447-.8154 1.969-1.2302.815-1.9685.815h-.1375v4.891h.1375c.7383 0 1.4464.293 1.9685.815s.8154 1.231.8154 1.969-.2933 1.446-.8154 1.968-1.2302.816-1.9685.816h-.1375v2.952h.1375c19.3171.029 38.1151-6.251 53.5351-17.885v-27.625z" fill="#fc6719"/><path d="m100.537 108.408c-3.7005 1.946-7.8205 2.958-12.0011 2.947h-.1375v5.568h.1375c5.4878-.002 10.7903-1.986 14.9311-5.588 4.141-3.601 6.842-8.577 7.605-14.0115-2.174 4.7685-5.883 8.6715-10.535 11.0845z" fill="#00bcb4"/><path d="m88.3984 90.071v14.077h.1375c3.5224.03 7.0115-.684 10.2395-2.094 3.2276-1.41 6.1226-3.4852 8.4946-6.0894 1.573-1.7528 2.861-3.7415 3.817-5.8936z" fill="#00bcb4"/><path d="m88.5359 20h-.1375v70.0711h22.6886c-.956 2.152-2.244 4.1407-3.817 5.8935-2.372 2.6042-5.267 4.6794-8.4946 6.0894-3.228 1.41-6.7171 2.124-10.2395 2.094h-.1375v7.207h.1375c4.1806.011 8.3006-1.001 12.0011-2.947 4.652-2.413 8.361-6.316 10.535-11.0845.198-.4428.376-.8957.544-1.3538h4.423v-48.4868c0-3.6109-.711-7.1863-2.094-10.522-1.382-3.3357-3.409-6.3663-5.963-8.9186-2.554-2.5522-5.586-4.5762-8.9227-5.9561-3.3367-1.38-6.9126-2.0889-10.5234-2.0862z" fill="#3d113c"/><path d="m142.077 118.562h-35.692v11.135h35.692z" fill="#3d113c"/><path d="m142.077 129.692h-35.692v2.947h35.692z" fill="#00bcb4"/><path d="m88.5359 127.386h-.1375v5.599h.1375c.7383 0 1.4464-.293 1.9685-.816.5221-.522.8154-1.23.8154-1.968s-.2933-1.447-.8154-1.969-1.2302-.815-1.9685-.815z" fill="#00bcb4"/><path d="m91.3198 140.665c0-.738-.2933-1.446-.8154-1.969-.5221-.522-1.2302-.815-1.9685-.815h-.1375v5.553h.1375c.7357 0 1.4414-.292 1.9631-.81.5216-.519.8167-1.223.8208-1.959z" fill="#00bcb4"/><path d="m91.3198 161.949c0-.739-.2933-1.447-.8154-1.969s-1.2302-.815-1.9685-.815h-.1375v5.552h.1375c.7357 0 1.4414-.291 1.9631-.81.5216-.518.8167-1.223.8208-1.958z" fill="#00bcb4"/><path d="m91.3198 172.423c0-.366-.072-.728-.2119-1.066-.14-.337-.345-.644-.6035-.903-.2585-.258-.5654-.463-.9032-.603s-.6998-.212-1.0653-.212h-.1375v5.552h.1375c.7357 0 1.4414-.291 1.9631-.81.5216-.518.8167-1.222.8208-1.958z" fill="#00bcb4"/><path d="m52.7051 101.863v-62.8693h-7.2015v62.8693h-1.9645v64.096c3.5782 2.099 7.2992 3.944 11.1356 5.522v-69.618z" fill="#016099"/></svg>

<svg width="178" height="179" viewBox="0 0 178 179" fill="none" xmlns="http://www.w3.org/2000/svg">
<circle cx="89" cy="89" r="89" fill="#00BCB4"/>
<path d="M88.3975 116.918C85.0146 116.9 81.6784 116.127 78.6326 114.655C75.5868 113.182 72.9084 111.048 70.7932 108.408H70.6914V118.556H88.3975V116.918Z" fill="#3D113C"/>
<path d="M35 132.639V160.269C37.7352 162.327 40.5866 164.225 43.54 165.954V132.639H35Z" fill="#FDB98D"/>
<path d="M76.5351 108.408C71.883 105.995 68.1739 102.092 66 97.3235C66.7597 102.733 69.4399 107.689 73.5512 111.287C77.6625 114.884 82.9306 116.883 88.3934 116.918V111.355C84.2609 111.343 80.1925 110.332 76.5351 108.408V108.408Z" fill="#FFFAC2"/>
<path d="M65.9844 90.071C66.9407 92.2231 68.2287 94.2118 69.8014 95.9646C72.157 98.5514 75.0284 100.616 78.2305 102.026C81.4326 103.435 84.8945 104.158 88.3931 104.148V90.071H65.9844Z" fill="#FFFAC2"/>
<path d="M61.0313 47.4828V95.9443H65.454C65.6219 96.4023 65.8 96.8553 65.9985 97.298C68.1724 102.067 71.8816 105.969 76.5336 108.383C80.193 110.306 84.2632 111.315 88.397 111.324V104.148C84.8984 104.158 81.4366 103.435 78.2345 102.026C75.0324 100.616 72.161 98.5514 69.8054 95.9646C68.2327 94.2118 66.9447 92.2231 65.9883 90.0711H88.3818V20C81.1158 20.035 74.1594 22.9459 69.0339 28.0962C63.9085 33.2464 61.0312 40.2168 61.0313 47.4828V47.4828Z" fill="#016099"/>
<path d="M70.6921 118.562H35V129.697H70.6921V118.562Z" fill="#016099"/>
<path d="M70.6921 129.692H35V132.639H70.6921V129.692Z" fill="#FBF9C6"/>
<path d="M54.6699 132.639V171.476C59.844 173.606 65.2085 175.241 70.6914 176.357V132.639H54.6699Z" fill="#FDB98D"/>
<path d="M88.398 127.387V118.562H73.6387V176.912C78.5159 177.731 83.4525 178.144 88.398 178.149V175.197C87.6822 175.166 87.006 174.86 86.5104 174.343C86.0147 173.826 85.7381 173.137 85.7381 172.42C85.7381 171.704 86.0147 171.015 86.5104 170.498C87.006 169.981 87.6822 169.675 88.398 169.644V164.718C87.6822 164.687 87.006 164.381 86.5104 163.864C86.0147 163.347 85.7381 162.658 85.7381 161.941C85.7381 161.225 86.0147 160.536 86.5104 160.019C87.006 159.502 87.6822 159.196 88.398 159.165V143.439C87.6822 143.408 87.006 143.102 86.5104 142.585C86.0147 142.068 85.7381 141.379 85.7381 140.663C85.7381 139.946 86.0147 139.257 86.5104 138.74C87.006 138.223 87.6822 137.917 88.398 137.886V132.985C87.6822 132.955 87.006 132.649 86.5104 132.131C86.0147 131.614 85.7381 130.925 85.7381 130.209C85.7381 129.492 86.0147 128.804 86.5104 128.286C87.006 127.769 87.6822 127.463 88.398 127.433V127.387Z" fill="#FDB98D"/>
<path d="M70.6914 118.562V176.362C71.6584 176.561 72.6356 176.744 73.6127 176.907V118.562H70.6914Z" fill="#FBF9C6"/>
<path d="M88.3977 127.386C87.7889 127.415 87.2063 127.642 86.7397 128.034C86.273 128.426 85.9482 128.961 85.8151 129.556C85.682 130.15 85.7482 130.772 86.0033 131.326C86.2585 131.879 86.6885 132.333 87.2271 132.618H88.3977V127.386Z" fill="#FBF9C6"/>
<path d="M87.2285 132.639C87.5902 132.831 87.99 132.941 88.3991 132.96V132.639H87.2285Z" fill="#FBF9C6"/>
<path d="M85.752 140.665C85.7511 141.379 86.0257 142.067 86.5185 142.584C87.0114 143.102 87.6846 143.41 88.3984 143.444V137.886C87.6846 137.92 87.0114 138.228 86.5185 138.745C86.0257 139.263 85.7511 139.95 85.752 140.665Z" fill="#FBF9C6"/>
<path d="M85.752 161.949C85.7511 162.664 86.0257 163.351 86.5185 163.869C87.0114 164.386 87.6846 164.694 88.3984 164.728V159.17C87.6846 159.204 87.0114 159.512 86.5185 160.029C86.0257 160.547 85.7511 161.234 85.752 161.949V161.949Z" fill="#FBF9C6"/>
<path d="M85.752 172.423C85.7512 173.137 86.0257 173.825 86.5186 174.342C87.0114 174.86 87.6847 175.168 88.3985 175.202V169.629C87.682 169.663 87.0065 169.973 86.5133 170.493C86.02 171.014 85.7473 171.705 85.752 172.423V172.423Z" fill="#FBF9C6"/>
<path d="M88.5359 116.923H88.3984V118.562H106.384V108.408H106.283C104.153 111.068 101.452 113.214 98.3797 114.688C95.3076 116.162 91.9432 116.926 88.5359 116.923V116.923Z" fill="#270E11"/>
<path d="M106.384 132.639V118.562H88.3984V127.387H88.5359C89.2742 127.387 89.9823 127.68 90.5044 128.202C91.0265 128.724 91.3198 129.432 91.3198 130.171C91.3198 130.909 91.0265 131.617 90.5044 132.139C89.9823 132.661 89.2742 132.955 88.5359 132.955H88.3984V137.871H88.5359C89.2742 137.871 89.9823 138.164 90.5044 138.686C91.0265 139.208 91.3198 139.917 91.3198 140.655C91.3198 141.393 91.0265 142.101 90.5044 142.623C89.9823 143.146 89.2742 143.439 88.5359 143.439H88.3984V159.17H88.5359C89.2742 159.17 89.9823 159.464 90.5044 159.986C91.0265 160.508 91.3198 161.216 91.3198 161.954C91.3198 162.692 91.0265 163.401 90.5044 163.923C89.9823 164.445 89.2742 164.738 88.5359 164.738H88.3984V169.629H88.5359C89.2742 169.629 89.9823 169.922 90.5044 170.444C91.0265 170.966 91.3198 171.675 91.3198 172.413C91.3198 173.151 91.0265 173.859 90.5044 174.381C89.9823 174.903 89.2742 175.197 88.5359 175.197H88.3984V178.149H88.5359C107.853 178.178 126.651 171.898 142.071 160.264V132.639H106.384Z" fill="#FC6719"/>
<path d="M100.537 108.408C96.8365 110.354 92.7165 111.366 88.5359 111.355H88.3984V116.923H88.5359C94.0237 116.921 99.3262 114.937 103.467 111.335C107.608 107.734 110.309 102.758 111.072 97.3235C108.898 102.092 105.189 105.995 100.537 108.408V108.408Z" fill="#00BCB4"/>
<path d="M88.3984 90.071V104.148H88.5359C92.0583 104.178 95.5474 103.464 98.7754 102.054C102.003 100.644 104.898 98.5688 107.27 95.9646C108.843 94.2118 110.131 92.2231 111.087 90.071H88.3984Z" fill="#00BCB4"/>
<path d="M88.5359 20H88.3984V90.0711H111.087C110.131 92.2231 108.843 94.2118 107.27 95.9646C104.898 98.5688 102.003 100.644 98.7754 102.054C95.5474 103.464 92.0583 104.178 88.5359 104.148H88.3984V111.355H88.5359C92.7165 111.366 96.8365 110.354 100.537 108.408C105.189 105.995 108.898 102.092 111.072 97.3235C111.27 96.8807 111.448 96.4278 111.616 95.9697H116.039V47.4829C116.039 43.872 115.328 40.2966 113.945 36.9609C112.563 33.6252 110.536 30.5946 107.982 28.0423C105.428 25.4901 102.396 23.4661 99.0593 22.0862C95.7226 20.7062 92.1467 19.9973 88.5359 20V20Z" fill="#3D113C"/>
<path d="M142.077 118.562H106.385V129.697H142.077V118.562Z" fill="#3D113C"/>
<path d="M142.077 129.692H106.385V132.639H142.077V129.692Z" fill="#00BCB4"/>
<path d="M88.5359 127.386H88.3984V132.985H88.5359C89.2742 132.985 89.9823 132.692 90.5044 132.169C91.0265 131.647 91.3198 130.939 91.3198 130.201C91.3198 129.463 91.0265 128.754 90.5044 128.232C89.9823 127.71 89.2742 127.417 88.5359 127.417V127.386Z" fill="#00BCB4"/>
<path d="M91.3198 140.665C91.3198 139.927 91.0265 139.219 90.5044 138.696C89.9823 138.174 89.2742 137.881 88.5359 137.881H88.3984V143.434H88.5359C89.2716 143.434 89.9773 143.142 90.499 142.624C91.0206 142.105 91.3157 141.401 91.3198 140.665V140.665Z" fill="#00BCB4"/>
<path d="M91.3198 161.949C91.3198 161.21 91.0265 160.502 90.5044 159.98C89.9823 159.458 89.2742 159.165 88.5359 159.165H88.3984V164.717H88.5359C89.2716 164.717 89.9773 164.426 90.499 163.907C91.0206 163.389 91.3157 162.684 91.3198 161.949Z" fill="#00BCB4"/>
<path d="M91.3198 172.423C91.3198 172.057 91.2478 171.695 91.1079 171.357C90.9679 171.02 90.7629 170.713 90.5044 170.454C90.2459 170.196 89.939 169.991 89.6012 169.851C89.2634 169.711 88.9014 169.639 88.5359 169.639H88.3984V175.191H88.5359C89.2716 175.191 89.9773 174.9 90.499 174.381C91.0206 173.863 91.3157 173.159 91.3198 172.423V172.423Z" fill="#00BCB4"/>
<path d="M52.7051 101.863V38.9937H45.5036V101.863H43.5391V165.959C47.1173 168.058 50.8383 169.903 54.6747 171.481V101.863H52.7051Z" fill="#016099"/>
</svg>
